X:34
T:Darby Gallagher's (j)
B:NFID.057a
034darb_g
S:JD
N:Variant of "East at [Humors of] Glendart" [BB]
L:1/8
M:6/8
R:jig
Q:320
K:D
d2A|: BAF ADD|FEF DFA|BAF AFD|AFE EFA|
BAF AFE|DFA d2g|fed Bcd|AFD DFA:|
def d2B|AFA ABc|def def|ede fdB|
def d2B|AFA AFA|gfe fdB|AFD DFA:|

%%%

